X:655
T: IM HEMMEL IM HEMMEL YS FROEUDE
N: E2034B
O: Europa, Mitteleuropa, Deutschland, Rostock
R: geistlich, Wallfahrts - Lied
M: 3/4
L: 1/4
K: F
F | FFG | EDC | FFG | E2
E | FFG | AAG | FFE | F2

@@@ Tune index: 5339
